X: 79
T:Jyg:Porthlystry
M:6/8
L:1/8
R:Jig
Z:bil@blueskiesink.com
K:D
A G|FGA DFA|GAB E2 D|CDE A,CE|FGA D2 AF:|!
D3 D FG|AGF dAF|GAB EGB|cde Ac
e|def c2 f|fed fed|efg Bef|cde BcG|FGA D3:|

